public/icons/box.svg

<svg width="24" height="24" viewBox="0 0 24 24" fill="none" xmlns="http://www.w3.org/2000/svg">
<path d="M8.53407 3.52519C9.75108 3.14221 10.8338 2.82844 11.453 2.65287C11.8133 2.55073 12.1844 2.55537 12.5423 2.66566C14.2014 3.17704 19.2128 4.76014 21.1873 5.8177L17.6941 7.28849L8.53407 3.52519Z" fill="#1574E5"/>
<path d="M6.34571 4.24779C4.89095 4.75503 3.51133 5.30109 2.71089 5.78036C2.73764 5.78825 2.76423 5.79772 2.79055 5.8088L11.9995 9.68614L15.7447 8.10926L6.34571 4.24779Z" fill="#1574E5"/>
<path d="M1.89249 6.94069C1.65708 8.59935 1.83905 13.7902 1.94167 16.2208C1.97464 17.0016 2.46462 17.6861 3.19023 17.9763L11.2568 21.2029C11.2645 21.206 11.2722 21.209 11.2799 21.212C11.2601 21.1447 11.2495 21.0736 11.2495 20.9999V10.9979L2.20848 7.19125C2.07742 7.13607 1.97024 7.048 1.89249 6.94069Z" fill="#1574E5"/>
<path d="M12.7191 21.212C12.7268 21.2091 12.7346 21.206 12.7423 21.2029L20.8089 17.9763C21.5345 17.686 22.0244 17.0016 22.0574 16.2208C22.1601 13.7902 22.3421 8.59914 22.1066 6.94059C22.0289 7.04795 21.9216 7.13606 21.7905 7.19126L12.7495 10.9979V20.9999C12.7495 21.0736 12.7389 21.1448 12.7191 21.212Z" fill="#1574E5"/>
</svg>

<svg xmlns="http://www.w3.org/2000/svg" width="24" height="24" fill="none"><path fill="#1574E5" d="M8.534 3.525c1.217-.383 2.3-.697 2.919-.872.36-.102.731-.098 1.09.013 1.658.511 6.67 2.094 8.644 3.152l-3.493 1.47zM6.346 4.248C4.89 4.755 3.51 5.3 2.71 5.78a1 1 0 0 1 .08.029L12 9.686l3.745-1.577zM1.892 6.94c-.235 1.66-.053 6.85.05 9.28.033.782.523 1.466 1.248 1.756l8.067 3.227.023.009a.8.8 0 0 1-.03-.212V10.998L2.207 7.19a.75.75 0 0 1-.316-.25M12.72 21.212l.022-.01 8.067-3.226a1.98 1.98 0 0 0 1.248-1.755c.103-2.43.285-7.622.05-9.28a.75.75 0 0 1-.316.25l-9.042 3.807V21a.8.8 0 0 1-.03.212"/></svg>
